X: 1207
T: Kate Kelly's Fancy
M:C|
L:1/8
R:Reel
B:O'Neill's 1207
N:No collector listed
Z:Transcribed be Trish O'Neil
K:G
dc|T(BA)(Bc) dcAc|BGGBd2(cA)|BABcd2cA|d2cA BGG2|
T(BA)(Bc) dcAc|BGGBd2(cA)|BABcd2(de)|fdcA BGG2||
fgafg2(fd)|d^cAcd2de|(fg)afg2(fd)|dcAc (BG)G2|
fgafg2(fd)|d^cAcd2de|fgaf gbag|fdcA BGAc||


